src/standard/diagrams/layered.svg

<svg xmlns="http://www.w3.org/2000/svg" viewBox="0 0 36 36">
  <path d="M31 11.38h-6.38V5a.62.62 0 0 0-.62-.62H5a.62.62 0 0 0-.62.62v19a.62.62 0 0 0 .62.62h6.38V31a.62.62 0 0 0 .62.62h19a.62.62 0 0 0 .62-.62V12a.62.62 0 0 0-.62-.62ZM11.38 12v11.38H5.62V5.62h17.76v5.76H12a.62.62 0 0 0-.62.62Zm19 18.38H12.62V12.62h17.76Z"/>
</svg>

<svg id="f5aa912d-8d1f-4bdf-a271-498170a1de49" data-name="Layer 1" xmlns="http://www.w3.org/2000/svg" viewBox="0 0 36 36">
  <path d="M31,11.38H24.62V5A.62.62,0,0,0,24,4.38H5A.62.62,0,0,0,4.38,5V24a.62.62,0,0,0,.62.62h6.38V31a.62.62,0,0,0,.62.62H31a.62.62,0,0,0,.62-.62V12A.62.62,0,0,0,31,11.38ZM11.38,12V23.38H5.62V5.62H23.38v5.76H12A.62.62,0,0,0,11.38,12Zm19,18.38H12.62V12.62H30.38Z"/>
</svg>
